X:391
T:Salt Spring, 1st Break
C:John Reischman and the Jaybirds
N:Transcribed by John Strong
R:bluegrass
L:1/8
Q:1/4=240
M:4/4
K:A
|: ce ze ez2e | {e}f2 e2 A2 ef | ze e2 A2 B2 | Bc ze Bc ze | B3e B3e | Bc B2 Ae Bc | 
ze B2 A2 G2 | F2 Ae F2 Ae | AB ze B3e | Bc B2 Ae Bc | ze B2 A2 D2 | EF FA EF FA | 
EF A2 AF AF | B2 A2 EF AA | F2 E2 AA EF | E2 Ae EF FE :|: EF FA FG GA | A2 Ae Bc ce | 
F2 AA G2 GA | A2 AA AA A2 | F2 AA G2 GA | A2 Ae Bc ce | B2 FG ee Be | FG Be Be [e2B2] :| 


